/* XPM */
static char *icon_32x32[] = {
/* columns rows colors chars-per-pixel */
"32 32 50 1 ",
"  c #0A0A0A",
". c #323233",
"X c #403F44",
"o c #1E1D23",
"O c #48474D",
"+ c #393B45",
"@ c #515052",
"# c #616064",
"$ c #717171",
"% c #5A595D",
"& c #7B7B7C",
"* c #46454A",
"= c #49494C",
"- c #2D2D2E",
"; c #87868A",
": c #4D4C50",
"> c #E66A1C",
", c #889C30",
"< c #E8A21B",
"1 c #FCDC23",
"2 c #AF8F5B",
"3 c #E49863",
"4 c #B0D364",
"5 c #F5E061",
"6 c #A3CE3D",
"7 c #6584AC",
"8 c #60A3CD",
"9 c #5988BA",
"0 c #919191",
"q c #B2B2B3",
"w c #A2A6AF",
"e c #DBB38B",
"r c #AECB8E",
"t c #FBF08E",
"y c #F0EDB3",
"u c #DCDBA0",
"i c #A1B7CA",
"p c #ADC9DD",
"a c #D1D2D0",
"s c #F5F1CE",
"d c #F6F6F5",
"f c #E1DBDA",
"g c #38383B",
"h c #717075",
"j c #353438",
"k c #5A595F",
"l c #151517",
"z c None",
"x c #98989C",
"c c #6CA445",
/* pixels */
"zzzzzzzzzzzzzzzzzzzlj=*jzzzzzzzz",
"zzzzzzzzzzzzzzzzzzj*@@$jzzzzzzzz",
"zzzzzzzzzzzzzzzzlj#@  $jzzzzzzzz",
"zzzzzzzzzzzzzzzzj%+  $%lzzzzzzzz",
"zzzzzzzzzzzzzzzl*@  .0gzzzzzzzzz",
"zzzzzzzzzzzzzzzj+  @0-zzzzzzzzzz",
"zzzzzzzzzllzzzz-oo@$-jljllzzzzzz",
"zzzzzl-X%%**-gjgo.X-*%+%@X*jlzzz",
"zzzl-%$0000$0$@XX%@####@#@+.oglz",
"zzl*#0q00qpq0$$$$$####@@@@@.o.-l",
"zl*#000qfdddfq$$#####@.@+++.@2-z",
"zg@000qfdddddf0##2qaaaq@...@&glz",
"jX$0$0addddddf0#0fddddda@o@0gzzz",
"-@0$$0fdddddaq#0$pdddddd0 $=lzzz",
"X@$0$$fddddd$@+@.0dddddd0 7jzzzz",
"X#$$$#qdddddq+@+#qddddda#@%lzzzz",
"X#$##@$adddsur,,24eafaa$ +%lzzzz",
"+@@@@+@0affat5511<2qaqq0+.%lzzzz",
"O@@+..0qwaaaa511>2qfaffpq@+jzzzz",
"X@.  $iaffddff3>2fdaaddfqr@olzzz",
"-@o #qafddddeeeeuarcrdddfq$.-lzz",
"j%. 0qfdddfe><3u5466rddddai@ogzz",
"l*+@qaddddf>>35ssu46rddddfa2 o-j",
"zj@$qffdddd><5tssyyuudddddf0+ @*",
"zl=qqfdddddeesddddssysddddfq#+$g",
"zzlwaafddddfpffddsst5sdddddq$$=l",
"zzzgwafddddpi8pfsst55tddddaq0&jz",
"zzzz=afffddp888pst515ydddaai0gzz",
"zzzzl;fffffa99pfau5usfdddfaaglzz",
"zzzzzl=aaffp9apfwaaafffaaqwkzzzz",
"zzzzzzzh&qqaw=hjljgxwwiq0;jzzzzz",
"zzzzzzzzljjjlzzzzzzlljgjjlzzzzzz"
};
